brandFactory_export/2.Regular/Data Alert_2Regular.svg

<?xml version="1.0" encoding="UTF-8"?>
<svg width="24px" height="24px" viewBox="0 0 24 24" version="1.1" xmlns="http://www.w3.org/2000/svg" xmlns:xlink="http://www.w3.org/1999/xlink">
    <title>2.Regular/Data Alert_2Regular</title>
    <g id="Symbols" stroke="none" stroke-width="1" fill="none" fill-rule="evenodd">
        <g id="2.Regular/Data-Alert_2Regular" fill="#5CB615" fill-rule="nonzero">
            <path d="M7.61344538,19.3647059 C7.21344538,19.3647059 6.8907563,19.0420168 6.8907563,18.6420168 L6.8907563,13.9731092 C6.8907563,13.5731092 7.21680672,13.2504202 7.61344538,13.2504202 C8.01008403,13.2504202 8.33613445,13.5731092 8.33613445,13.9731092 L8.33613445,18.6420168 C8.3394958,19.0386555 8.01344538,19.3647059 7.61344538,19.3647059 Z M7.61344538,19.7680672 C8.02016807,19.7680672 8.34957983,20.097479 8.34957983,20.5042017 C8.34957983,20.9109244 8.02016807,21.2403361 7.61344538,21.2403361 C7.20672269,21.2403361 6.87731092,20.9109244 6.87731092,20.5042017 C6.87731092,20.097479 7.20672269,19.7680672 7.61344538,19.7680672 Z M22.2084034,9.01176471 L22.2084034,5.2907563 C21.7546218,5.55966387 21.2033613,5.80168067 20.5277311,6.00336134 C19.0890756,6.43697479 17.2168067,6.66890756 15.2436975,6.66890756 C13.2739496,6.66890756 11.3983193,6.43697479 9.9697479,6.00336134 C9.29411765,5.79831933 8.72268908,5.54957983 8.26890756,5.27058824 L8.26890756,8.72268908 C8.44369748,8.8302521 8.58823529,8.98151261 8.68571429,9.16638655 L8.92773109,9.65714286 C9.31428571,9.89915966 9.81512605,10.1210084 10.3865546,10.292437 C11.6907563,10.6890756 13.4184874,10.9008403 15.2537815,10.9008403 C17.0890756,10.9008403 18.8067227,10.6890756 20.1109244,10.292437 C21.3109244,9.93613445 21.9663866,9.39495798 22.2084034,9.01176471 L22.2084034,9.01176471 Z M22.2084034,14.7092437 L22.2084034,10.9378151 C21.7344538,11.2268908 21.1663866,11.4890756 20.5277311,11.6806723 C19.0957983,12.1042017 17.2235294,12.3462185 15.2537815,12.3462185 C13.2840336,12.3462185 11.4016807,12.1042017 9.9697479,11.6806723 C9.95966387,11.6705882 9.9394958,11.6705882 9.93277311,11.6605042 L12.2890756,16.3932773 C13.2067227,16.5277311 14.2319328,16.605042 15.2537815,16.605042 C17.0890756,16.605042 18.8067227,16.3831933 20.1109244,15.9966387 C21.3109244,15.6470588 21.9663866,15.1058824 22.2084034,14.7092437 L22.2084034,14.7092437 Z M22.2084034,20.0134454 L22.2084034,16.6386555 C21.7344538,16.9378151 21.1663866,17.189916 20.5277311,17.3815126 C19.0957983,17.8151261 17.2235294,18.0571429 15.2537815,18.0571429 C14.4907563,18.0571429 13.7680672,18.0067227 13.0521008,17.9428571 L15.0789916,22.0033613 C15.1159664,22.0705882 15.1159664,22.1478992 15.1361345,22.2151261 L15.2302521,22.2151261 C17.0554622,22.2151261 18.7865546,22.0033613 20.097479,21.610084 C21.0588235,21.3142857 22.2084034,20.8033613 22.2084034,20.0134454 L22.2084034,20.0134454 Z M7.66386555,10.3596639 L1.68739496,22.1445378 L13.5563025,22.1915966 L7.66386555,10.3596639 Z M10.3798319,2.08739496 C9.27058824,2.42352941 8.57478992,2.87058824 8.36302521,3.34117647 C8.56470588,3.83193277 9.27058824,4.28571429 10.389916,4.61176471 C11.6941176,5.00840336 13.4218487,5.22016807 15.2470588,5.22016807 C17.0823529,5.22016807 18.810084,5.00840336 20.1142857,4.61176471 C21.2168067,4.28571429 21.9294118,3.84201681 22.1411765,3.35798319 C21.8789916,2.74957983 20.9243697,2.33613445 20.1042017,2.08403361 C18.8,1.69747899 17.0722689,1.47563025 15.2369748,1.47563025 C13.4016807,1.4789916 11.6705882,1.70084034 10.3798319,2.08739496 Z M20.5176471,0.699159664 C22.605042,1.32436975 23.6571429,2.32941176 23.6571429,3.68739496 L23.6571429,20.010084 C23.6571429,21.3613445 22.605042,22.3630252 20.5176471,22.9882353 C19.0789916,23.4218487 17.1966387,23.6537815 15.2336134,23.6537815 C15.0420168,23.6537815 14.3764706,23.6537815 14.1714286,23.6436975 C14.1512605,23.6436975 14.1243697,23.6336134 14.0941176,23.6336134 L14.0436975,23.6336134 L1.15966387,23.5865546 L1.1394958,23.5865546 C0.541176471,23.5865546 0.0403361345,23.092437 0.0302521008,22.4773109 C0.0201680672,22.2857143 0.0672268908,22.1008403 0.154621849,21.9361345 L6.64537815,9.14957983 C6.69243697,9.07226891 6.75294118,9.00504202 6.82016807,8.93781513 L6.82016807,3.68067227 C6.82016807,3.46890756 6.85042017,3.25714286 6.90756303,3.04537815 L6.90756303,3.03529412 C7.20672269,2.00336134 8.22857143,1.21344538 9.94957983,0.692436975 C11.3882353,0.265546218 13.2605042,0.0268907563 15.2302521,0.0268907563 C17.2067227,0.0336134454 19.0890756,0.275630252 20.5176471,0.699159664 Z" id="Data-Alert_2Regular"></path>
        </g>
    </g>
</svg>

<svg width="24" height="24" viewBox="0 0 24 24" xmlns="http://www.w3.org/2000/svg"><path d="M7.613 19.365a.722.722 0 01-.722-.723v-4.669a.724.724 0 011.445 0v4.669a.722.722 0 01-.723.723zm0 .403a.736.736 0 110 1.472.736.736 0 010-1.472zM22.208 9.012V5.29a7.469 7.469 0 01-1.68.712c-1.439.434-3.311.666-5.284.666-1.97 0-3.846-.232-5.274-.666-.676-.205-1.247-.453-1.701-.732v3.452c.175.107.32.259.417.443l.242.491c.386.242.887.464 1.459.635 1.304.397 3.031.609 4.867.609 1.835 0 3.553-.212 4.857-.609 1.2-.356 1.855-.897 2.097-1.28zm0 5.697v-3.771a7.241 7.241 0 01-1.68.743c-1.432.423-3.304.665-5.274.665-1.97 0-3.852-.242-5.284-.665-.01-.01-.03-.01-.037-.02l2.356 4.732a20.82 20.82 0 002.965.212c1.835 0 3.553-.222 4.857-.608 1.2-.35 1.855-.891 2.097-1.288zm0 5.304V16.64a6.84 6.84 0 01-1.68.743c-1.432.433-3.304.675-5.274.675-.763 0-1.486-.05-2.202-.114l2.027 4.06c.037.068.037.145.057.212h.094c1.825 0 3.557-.212 4.867-.605.962-.296 2.111-.807 2.111-1.597zM7.664 10.36L1.687 22.145l11.87.047L7.663 10.36zm2.716-8.273c-1.11.337-1.805.784-2.017 1.254.202.49.908.945 2.027 1.27 1.304.397 3.032.61 4.857.61 1.835 0 3.563-.213 4.867-.61 1.103-.325 1.815-.769 2.027-1.253-.262-.608-1.217-1.022-2.037-1.274-1.304-.387-3.032-.608-4.867-.608-1.835.003-3.566.225-4.857.611zM20.518.7c2.087.625 3.14 1.63 3.14 2.988V20.01c0 1.351-1.053 2.353-3.14 2.978-1.439.434-3.321.666-5.284.666-.192 0-.858 0-1.063-.01-.02 0-.047-.01-.077-.01h-.05L1.16 23.587h-.02c-.599 0-1.1-.495-1.11-1.11-.01-.191.037-.376.125-.54L6.645 9.15c.047-.078.108-.145.175-.212V3.68c0-.212.03-.424.088-.636v-.01C7.207 2.003 8.228 1.213 9.95.692c1.438-.426 3.31-.665 5.28-.665 1.977.007 3.86.249 5.288.672z" fill="#5CB615" fill-rule="nonzero"/></svg>
